packages/icons/svg/24/PauseAlt.svg

<svg width="24" height="24" viewBox="0 0 24 24" fill="none" xmlns="http://www.w3.org/2000/svg">
<path d="M6 7C6 6.44772 6.44772 6 7 6H10C10.5523 6 11 6.44772 11 7V17C11 17.5523 10.5523 18 10 18H7C6.44772 18 6 17.5523 6 17V7Z" fill="#858585"/>
<path d="M13 7C13 6.44772 13.4477 6 14 6H17C17.5523 6 18 6.44772 18 7V17C18 17.5523 17.5523 18 17 18H14C13.4477 18 13 17.5523 13 17V7Z" fill="#858585"/>
</svg>

<svg width="24" height="24" fill="none" xmlns="http://www.w3.org/2000/svg" viewBox="0 0 24 24"><path d="M6 7a1 1 0 011-1h3a1 1 0 011 1v10a1 1 0 01-1 1H7a1 1 0 01-1-1V7zM13 7a1 1 0 011-1h3a1 1 0 011 1v10a1 1 0 01-1 1h-3a1 1 0 01-1-1V7z" fill="currentColor"></path></svg>
